tools/download-figma-icons/icons/solid/smiley-happy.svg

<svg width="24" height="24" viewBox="0 0 24 24" fill="none" xmlns="http://www.w3.org/2000/svg">
<path d="M12 0C5.385 0 0 5.385 0 12C0 18.615 5.385 24 12 24C18.615 24 24 18.615 24 12C24 5.385 18.615 0 12 0ZM5.4225 10.02L7.2975 7.77C7.5825 7.425 8.1675 7.425 8.4525 7.77L10.3275 10.02C10.59 10.335 10.545 10.815 10.23 11.0775C10.0875 11.19 9.9225 11.25 9.75 11.25C9.5325 11.25 9.3225 11.16 9.1725 10.98L7.875 9.42L6.5775 10.98C6.315 11.3025 5.8425 11.34 5.52 11.0775C5.205 10.815 5.16 10.335 5.4225 10.02ZM6.42 14.2575C6.795 14.0775 7.2375 14.2275 7.425 14.595C7.485 14.715 8.7675 17.1825 12.0225 17.1825C15.2775 17.1825 16.5225 14.7075 16.575 14.6025C16.755 14.235 17.205 14.0775 17.5725 14.2575C17.9475 14.4375 18.105 14.88 17.925 15.255C17.8575 15.3975 16.245 18.6825 12.0225 18.6825C7.8 18.6825 6.1425 15.405 6.075 15.2625C5.895 14.8875 6.045 14.4375 6.42 14.2575ZM18.48 11.0775C18.3375 11.19 18.1725 11.25 18 11.25C17.7825 11.25 17.5725 11.16 17.4225 10.98L16.125 9.42L14.8275 10.98C14.5575 11.3025 14.0925 11.34 13.77 11.0775C13.455 10.815 13.41 10.335 13.6725 10.02L15.5475 7.77C15.8325 7.425 16.4175 7.425 16.7025 7.77L18.5775 10.02C18.84 10.335 18.795 10.815 18.48 11.0775Z" fill="black"/>
</svg>

<svg xmlns="http://www.w3.org/2000/svg" width="24" height="24" fill="none" viewBox="0 0 24 24"><path fill="currentColor" d="M12 0C5.385 0 0 5.385 0 12s5.385 12 12 12 12-5.385 12-12S18.615 0 12 0M5.423 10.02l1.875-2.25c.284-.345.87-.345 1.155 0l1.875 2.25a.757.757 0 0 1-.098 1.058.77.77 0 0 1-.48.172.74.74 0 0 1-.578-.27L7.876 9.42l-1.298 1.56a.75.75 0 0 1-1.057.098.757.757 0 0 1-.097-1.058m.997 4.238a.756.756 0 0 1 1.005.337c.06.12 1.343 2.588 4.598 2.588s4.5-2.476 4.552-2.58a.75.75 0 0 1 1.35.652c-.067.143-1.68 3.428-5.902 3.428s-5.88-3.278-5.948-3.42a.75.75 0 0 1 .345-1.005m12.06-3.18a.77.77 0 0 1-.48.172.74.74 0 0 1-.578-.27l-1.297-1.56-1.297 1.56a.75.75 0 1 1-1.155-.96l1.874-2.25c.285-.345.87-.345 1.156 0l1.875 2.25a.757.757 0 0 1-.098 1.058"/></svg>
